;START_OF_HEADER
;HEADER_VERSION:0.1
;FLAVOR:Griffin
;GENERATOR.NAME:Cura_SteamEngine
;GENERATOR.VERSION:4.3.0
;GENERATOR.BUILD_DATE:2019-09-24
;TARGET_MACHINE.NAME:Ultimaker S3
;EXTRUDER_TRAIN.0.INITIAL_TEMPERATURE:200
;EXTRUDER_TRAIN.0.MATERIAL.VOLUME_USED:253444
;EXTRUDER_TRAIN.0.MATERIAL.GUID:506c9f0d-e3aa-4bd4-b2d2-23e2425b1aa9
;EXTRUDER_TRAIN.0.NOZZLE.DIAMETER:0.4
;EXTRUDER_TRAIN.0.NOZZLE.NAME:AA 0.4
;BUILD_PLATE.TYPE:glass
;BUILD_PLATE.INITIAL_TEMPERATURE:60
;PRINT.TIME:136757
;PRINT.GROUPS:1
;PRINT.SIZE.MIN.X:58.07
;PRINT.SIZE.MIN.Y:38.07
;PRINT.SIZE.MIN.Z:0.2
;PRINT.SIZE.MAX.X:171.93
;PRINT.SIZE.MAX.Y:151.93
;PRINT.SIZE.MAX.Z:100
;END_OF_HEADER
;Generated with Cura_SteamEngine 4.3.0
T0
M82 ;absolute extrusion mode

G92 E0
M109 S200
G280 S1
G0 Z20.001
G1 F1500 E-6.5
;LAYER_COUNT:999
;LAYER:0
M107
M204 S625
M205 X10 Y10
G1 F600 Z2.2
G0 F2571.4 X167.627 Y151.413 Z2.2
M204 S500
M205 X5 Y5
;TYPE:SKIRT

G1 X0 Y0 Z0
G1 X1 Y0 Z0
G1 X1 Y1 Z0
G1 X0 Y1 Z0
G1 X0 Y1 Z1
G1 X0 Y0 Z1
G1 X1 Y0 Z1
G1 X1 Y1 Z1

;TIME_ELAPSED:136757.775929
G1 F1500 E525.19637
M140 S0
M204 S3000
M205 X20 Y20
M107

M82 ;absolute extrusion mode
M104 S0
M104 T1 S0
;End of Gcode
